X: 17
T: Maids Of Mount Kisco, The
C: Paddy Killoran
Z: UPipes & harp
S: https://thesession.org/tunes/432#setting48275
R: reel
M: 4/4
L: 1/8
K: Ador
|:EA~A2 BA~A2|EA~A2 BGAG|EG~G2 AG~G2|EG~G2 EGDG|
EA~A2 BAAG|EA~A2 BABd|efge afge|1 dBGB ~A3G:|2 dBGB A2dB||
|:~A3B dBAB|G2BG DGBG|~A3B dGBd|1 e~g3 gedB:|2 edge d2 Bd||
|:ea~a2 bgaf|gedB GABd|ea~a2 bgaf|gede g2eg|
~a3f ~g3e|dedB GABd|eA~A2 efge|1 dBGB A2 Bd:|2 dBGB ~A3G||

